X:441
T: HILDEBRAND UND SEIN SOHN HADUBRAND
N: F0824
O: Europa, Mitteleuropa, Deutschland
R: erzaehlendes Volks - Lied, Ballade, Hildebrand - Lied
M: 2/4
L: 1/8
K: G
 | GGG2 | BGB2 | d3d | d2z2
GGG2 | AGA2 | B3B | B2z2
cBAGFE | ^D2E2
FGAGAB | d2B2
cBAGFE | B4 | B4

